flaticon/medical/medical-records.svg

<svg xmlns="http://www.w3.org/2000/svg" width="32" height="32" viewBox="0 0 24 24">
    <path d="M9.101562 11.585938L12.414062 11.585938 12.414062 9.929688 14.070312 9.929688 14.070312 6.621094 12.414062 6.621094 12.414062 4.964844 9.101562 4.964844 9.101562 6.621094 7.449219 6.621094 7.449219 9.929688 9.101562 9.929688zM8.277344 9.101562L8.277344 7.449219 9.929688 7.449219 9.929688 5.792969 11.585938 5.792969 11.585938 7.449219 13.242188 7.449219 13.242188 9.101562 11.585938 9.101562 11.585938 10.757812 9.929688 10.757812 9.929688 9.101562zM8.691406 14.898438C8.460938 14.898438 8.277344 15.082031 8.277344 15.308594 8.277344 15.539062 8.460938 15.722656 8.691406 15.722656L12.828125 15.722656C13.054688 15.722656 13.242188 15.539062 13.242188 15.308594 13.242188 15.082031 13.054688 14.898438 12.828125 14.898438zM14.484375 16.550781L7.035156 16.550781C6.804688 16.550781 6.621094 16.738281 6.621094 16.964844 6.621094 17.195312 6.804688 17.378906 7.035156 17.378906L14.484375 17.378906C14.710938 17.378906 14.898438 17.195312 14.898438 16.964844 14.898438 16.738281 14.710938 16.550781 14.484375 16.550781zM14.484375 18.207031L7.035156 18.207031C6.804688 18.207031 6.621094 18.390625 6.621094 18.621094 6.621094 18.847656 6.804688 19.035156 7.035156 19.035156L14.484375 19.035156C14.710938 19.035156 14.898438 18.847656 14.898438 18.621094 14.898438 18.390625 14.710938 18.207031 14.484375 18.207031zM14.484375 18.207031"/>
    <path d="M 19.863281 0 L 1.65625 0 L 1.65625 24 L 19.863281 24 L 19.863281 21.515625 L 22.34375 21.515625 L 22.34375 0 Z M 19.035156 23.171875 L 2.484375 23.171875 L 2.484375 0.828125 L 19.035156 0.828125 Z M 21.515625 20.691406 L 19.863281 20.691406 L 19.863281 17.378906 L 21.515625 17.378906 Z M 21.515625 16.550781 L 19.863281 16.550781 L 19.863281 13.242188 L 21.515625 13.242188 Z M 21.515625 12.414062 L 19.863281 12.414062 L 19.863281 9.101562 L 21.515625 9.101562 Z M 21.515625 8.277344 L 19.863281 8.277344 L 19.863281 4.964844 L 21.515625 4.964844 Z M 19.863281 4.136719 L 19.863281 0.828125 L 21.515625 0.828125 L 21.515625 4.136719 Z M 19.863281 4.136719"/>
</svg>

<svg xmlns="http://www.w3.org/2000/svg" width="32" height="32" viewBox="0 0 24 24">
    <path d="M9.102 11.586h3.312V9.93h1.656V6.62h-1.656V4.965H9.102V6.62H7.449V9.93h1.653zm-.825-2.484V7.449H9.93V5.793h1.656v1.656h1.656v1.653h-1.656v1.656H9.93V9.102zm0 0M8.691 14.898a.412.412 0 1 0 0 .824h4.137a.414.414 0 0 0 .414-.413.413.413 0 0 0-.414-.41zm0 0M14.484 16.55H7.035a.414.414 0 0 0 0 .829h7.45a.414.414 0 0 0 0-.828zm0 0M14.484 18.207H7.035a.414.414 0 0 0 0 .828h7.45a.414.414 0 0 0 0-.828zm0 0"/>
    <path d="M19.863 0H1.656v24h18.207v-2.484h2.48V0zm-.828 23.172H2.485V.828h16.55zm2.48-2.48h-1.652v-3.313h1.653zm0-4.141h-1.652v-3.309h1.653zm0-4.137h-1.652V9.102h1.653zm0-4.137h-1.652V4.965h1.653zm-1.652-4.14V.828h1.653v3.309zm0 0"/>
</svg>
